X:1
T:Gott ist unsre Sonn' und Schild
T:BWV 79/2
T:Johann Sebastian Bach arr. André Papillon 
%%score 1 { ( 2 4 ) | 3 }
L:1/8
Q:3/8=50
M:6/8
K:D
V:1 treble nm="Flûte"
V:2 treble nm="Piano"
V:4 treble 
V:3 bass 
V:1
 f e2 d/f/A/c/d/f/ | g f2 e/g/A/c/e/g/ | a/=c/B/A/B/f/ a/g/g/f/f/g/ | g/B/A/G/A/e/ g/f/f/e/e/f/ | %4
 f/d/c/B/^g/a/ d/B/A/^G/f/e/ | ed/c/B/c/ A2 z | e/=g/f/e/a/d/ c/e/A/B/c/d/ | %7
 e/g/f/e/a/d/ c/e/A/B/c/d/ | e/g/f/b/a/d/ c/e/d/g/f/B/ | A/=c/B/e/d/A/ G3- | %10
 G/B/A/G/^c/d/ A/c/B/A/g/f/ | fdc d3 | z6 | z6 | f e2 d/f/A/c/d/f/ | g f2 e/c/A/^G/A/c/ | %16
 e3- e/f/^g/a/g/a/ | e3- e/d/d/c/c/B/ | c3- c/f/^e/f/e/f/ | c3- c/B/B/A/A/c/ | B/A/A/^G/G/F/ E2 z | %21
 z3 z/ (e/d/c/)=g/f/ | f/d/c/B/^g/a/ d/B/A/^G/f/e/ | ed/c/B/c/ d3- | d z z z3 | %25
 c B2 A/c/E/^G/A/c/ | B/d/c/B/e/A/ ^G/B/E/F/G/A/ | B/d/c/B/e/A/ ^G/B/E/F/G/A/ | %28
 B/d/c/f/e/A/ ^G/B/A/d/c/F/ | E/=G/F/B/A/E/ D3- | D/F/E/D/^G/A/ E/G/F/E/d/c/ | cA^G A/G/A/B/c/d/ | %32
 eE z z3 | eE z z3 | z/ d/c/B/c/g/ f/g/f/e/f/d/ | Beg z/ d/c/B/c/e/ | d/g/f/e/f/b/ e^a z | %37
 z3 z/ d/c/B/f/g/ | a/=c/B/A/B/f/ a/g/g/f/f/g/ | g/B/A/G/A/e/ g/f/f/e/e/f/ | %40
 f/A/G/F/G/B/ e/g/f/e/^a/b/ | fe/d/c/d/ B2 z | z6 | z6 | e/g/f/e/a/d/ c/e/A/B/c/d/ | %45
 e/g/f/e/a/d/ c/e/A/B/c/d/ | e/g/f/b/a/d/ c/e/d/g/f/B/ | A/=c/B/e/d/A/ G3- | %48
 G/B/A/G/^c/d/ A/c/B/A/g/f/ | fdc d/A/f/d/a/g/ | a6- | a3- a/c/B/A/g/f/ | f e2 d/f/A/c/d/f/ | %53
 g f2 e/c/A/^G/A/c/ | e/=g/f/e/a/d/ c/e/A/B/c/d/ | e/g/f/e/a/d/ c/e/A/B/c/d/ | %56
 e/g/f/b/a/d/ c/e/d/g/f/B/ | A/=c/B/e/d/A/ G3- | G z z z3 | z6 | f e2 d/f/A/c/d/f/ | %61
 g f2 e/g/A/c/e/g/ | a/=c/B/A/B/f/ a/g/g/f/f/g/ | g/B/A/G/A/e/ g/f/f/e/e/f/ | %64
 f/d/c/B/^g/a/ d/B/A/^G/f/e/ | ed/c/B/c/ A2 z | e/=g/f/e/a/d/ c/e/A/B/c/d/ | %67
 e/g/f/e/a/d/ c/e/A/B/c/d/ | e/g/f/b/a/d/ c/e/d/g/f/B/ | A/=c/B/e/d/A/ G3- | %70
 G/B/A/G/^c/d/ A/c/B/A/g/f/ | fdc d3 | z6 |] %73
V:2
 [FA] [CA]2 [DA]2 z | EFD C2 z | AGF B^dB | GFE AcA | [FA]2 [EA] F2 E | [CE][B,F][D^G] [CA]3 | %6
w: ||||||
 C2 D [CE]2 B, | EFD E2 z | EFD CDB, | A,B,D [B,E]3 | [A,E]2 [A,D] [A,C]2 [CEA] | A3 A3 | %12
w: ||||||
 F E2 D C/D/E/F/ | G F2 E3 | A G2 FE D | BA d c3 | Bc d cd/c/ B/A/ | Be d cB A | ^GA B AB/A/ G/F/ | %19
w: Gott~ ist~ un- sre~ _ _ _|Sonn'~ und~ Schild!~|Gott~ ist~ un- * sre~|Sonn' _ und~ Schild!~|da- * rum~ rüh- * * met~ _|des- * sen~ Gü- * te~|un- * ser~ dank- * * ba- *|
 ^Gc B AG F | B d2- d c/B/ A/^G/ | F/E/c B A3- | A6- | A3- A ^G F | E Bc/d/ cA ^G | A2 z [A,E]3 | %26
w: res~ _ Ge- mü- * te,~|die~ er~ _ für~ _ sein~ _|Häuf- * * lein~ hegt,~|_|* * die~ er~|für~ sein~ _ _ Häuf- * lein~|hegt.~ *|
 B,CA, B,3 | B,CA, B,3 | E2 A, B,EC | A,2 C B,3 | B,2 E- E2 [E^G] | AED C3 | c B2 A ^G/A/B/c/ | %33
w: ||||||Denn~ er~ will~ uns~ _ _ _|
 d c2 B A/^G/F/E/ | e ^A2 Bc d | G/E/F/G/ A/B/ c/B/A G | F A/G/F/E/ B/^A/^G/F/e | %37
w: fer- ner~ schüt- zen,~ _ _ _|ob~ die~ Fein- * de~|Pfei- * * * le~ _ schnit- * * zen~|und~ ein~ _ _ _ Lä- * * * *|
 z/ d/ c B/^A/ B2 z | AGF B^dB | GFE AcA | D B,2 ^A,CD | FGE [B,D]2 z | F E2 D C/D/E/F/ | %43
w: ster- hund~ gleich~ _ billt.~|||||Gott~ ist~ un- sre~ _ _ _|
 G F2 E2 z | C2 D C2 B, | EFD E3 | EFD CDB, | A,B,D [B,E]3 | [A,E]2 [A,D] [A,C]2 [CEA] | A3 A3 | %50
w: Sonn'~ und~ Schild!~|||||||
 F E2 D C/D/E/F/ | G F2 E2 z | A G2 FE D | BA d c3 | z c d AG F | Ec d A3- | A D/E/ F/G/ A=c/A/ c | %57
w: Gott~ ist~ un- sre~ _ _ _|Sonn'~ und~ Schild,~|Gott~ ist~ un- * sre~|Sonn'~ _ und~ Schild.~|Gott~ ist~ un- * sre~|Sonn'~ _ und~ Schild,~|_ un- * sre~ _ Sonn'~ _ _ und~|
 =c3- c B/A/ B/d/ | c/B/A/G/F/E/ F/D/B A | A3- A d E | D2 z [DA]2 z | EFD C2 z | AGF B^dB | %63
w: Schild~ _ un- * sre~ _|Sonn'~ _ _ _ _ _ _ _ _ und~|Schild,~ _ Sonn'~ und~|Schild!~ *|||
 GFE AcA | [FA]2 [EA] F2 E | [CE][B,F][D^G] [CA]3 | C2 D C2 B, | EFD E2 z | EFD CDB, | %69
w: ||||||
 A,B,D [B,E]3 | [A,E]2 [A,D] [A,C]2 [CEA] | A3 A3- | [FA]3 z3 |] %73
w: ||||
V:3
 DA,G, F,2 z | C,D,F, A,2 z | F,G,A, ^D,B,,D, | E,F,G, C,A,,C, | D,DC B,F,^G, | A,D,E, A,,C,E, | %6
 A,G,F, E,2 D, | C,D,F, A,CE | CA,F, A,F,D, | F,D,B,, E,B,,D, | C,E,F, G,C,A,, | D,F,,A,, D,F,A, | %12
 DA,G, F,E,D, | C,D,/E,/F,/G,/ A,A,,G,, | F,,G,,A,, D,,2 z | C,D,/E,/F,/G,/ A,B,A, | %16
 ^G,F,E, A,2 z | ^G,F,/E,/F,/G,/ A,2 z | ^E,^D,C, F,2 z | ^E,C,E, F,2 =E, | D,C,B,, ^G,A,B, | %21
 C,D,E, A,,B,,C, | D,DC B,CD | CA,^G, F,B,A, | ^G,F,E, A,C,E, | A,,E,D, C,2 z | ^G,,A,,C, E,2 F, | %27
 ^G,A,C, E,G,B, | ^G,E,C, E,C,A,, | C,A,,F,, B,,F,A, | ^G,B,C DG,E, | A,C,E, A,,C,E, | %32
 A,^G,/F,/E,/D,/ C,B,,A,, | ^G,,A,,/B,,/C,/D,/ E,2 D, | C,F,E, D,C,B,, | E,2 z A,E,A,, | %36
 D,A,D G,C,^A,, | B,,F,F,, B,CD | F,G,A, ^D,B,,D, | E,F,G, C,A,,C, | D,^D,E, C,^A,,F,, | %41
 D,,E,,F,, B,,/B,/A,/G,/F,/E,/ | D,A,G, F,E,D, | C,D,/E,/F,/G,/ A,E,C, | A,,G,,F,, E,,2 D,, | %45
 C,,D,,F,, A,,C,E, | C,A,,F,, A,,F,,D,, | F,D,B,, E,B,,D, | C,E,F, G,C,A,, | D,F,A, DA,F, | %50
 D,A,G, F,E,D, | C,D,/E,/F,/G,/ A,B,C | DG,A, B,2 z | C,D,/E,/F,/G,/ A,E,C, | A,,G,F, z E,D, | %55
 C,G,F, z E,D, | C,D,B,, z F,,A,, | F,,D,,F,, G,,G,F, | E,C,A,, D,G,, z | %59
 z/ G,/F,/E,/D,/C,/ F,F,,A,, | D,,A,G, F,2 z | C,D,F, A,2 z | F,G,A, ^D,B,,D, | E,F,G, C,A,,C, | %64
 D,DC B,F,^G, | A,D,E, A,,C,E, | A,G,F, E,2 D, | C,D,F, A,CE | CA,F, A,F,D, | F,D,B,, E,B,,D, | %70
 C,E,F, G,C,A,, | D,F,,A,, D,F,A, | D3 z3 |] %73
V:4
 x6 | A,3 x3 | ^D3 F3 | B,3 E3 | x3 D2 B, | x6 | x6 | A,3 x3 | x6 | x6 | x6 | [DF]2 [EG] [DF]3 | %12
 x6 | x6 | x6 | x6 | x6 | x6 | x6 | x6 | x6 | x6 | x6 | x6 | x6 | x6 | x6 | x6 | x6 | x6 | x6 | %31
 C2 B, A,3 | x6 | x6 | x6 | x6 | x6 | x6 | ^D3 F3 | B,3 E3 | x6 | B,2 ^A, x3 | x6 | x6 | x6 | %45
 A,3 x3 | x6 | x6 | x6 | [DF]2 [EG] F3 | x6 | x6 | x6 | x6 | x6 | x6 | x6 | x6 | x6 | x6 | x6 | %61
 A,3 x3 | ^D3 F3 | B,3 E3 | x3 DCB, | x6 | x6 | A,3 x3 | x6 | x6 | x6 | [DF]2 [EG] [DF-]3 | x6 |] %73

